X:121
T:Bedford's Delight
R:jig
M:6/8
L:1/8
Z:robin.beech@mcgill.ca
K:Dmin
d2e f2g | aga f2e | d2e f2g | aga d3 ::
gfe d2d | d^c=B A3 | A2=B ^c2d |1 e2f e2e :|2 e2f d3 |]
